X: 1298
T: Lovely Molly
R:Reel
N:Collected by J. O'Neill
B:O'Neill's 1298
Z:Transcribed by Trish O'Neil
M:C|
L:1/8
K:Em
B2(AF) DEFA|(3Bcd (Ad) Bdef|dBAF DEFA|1(3Bcd (AB) FEEA:|2(3Bcd (AB) FEE2||
Beed BddA|Beef gfed|Beed Bdef|dBAF FEEA|
Beed BddA|Beef gfga|bgaf gefe|dBAF FEE2|]


